;FLAVOR:RepRap
;TIME:1961
;Filament used: 1.51708m
;Layer height: 0.25
;MINX:0
;MINY:0
;MINZ:0.3
;MAXX:56.274
;MAXY:55.459
;MAXZ:84.3
;TARGET_MACHINE.NAME:Unknown
;Generated with Cura_SteamEngine 5.11.0
T0
M104 S228
M109 S228
G28 ;Home
G1 Z15.0 F6000 ;Move the platform down 15mm
G92 E0
M82 ;absolute extrusion mode
M83 ;relative extrusion mode
G1 F1500 E-6.5
;LAYER_COUNT:337
;LAYER:0
M107
G1 F600 Z1.3
G0 F4320 X0.00 Y0.00 Z1.3
G0 X46.96 Y44.758
;TYPE:SKIRT
G1 F600 Z0.3
G1 F1500 E6.5
G1 F900 X47.401 Y44.369 E0.02934
G1 X47.881 Y44.094 E0.0276
G1 X48.376 Y43.92 E0.02618
G1 X49.257 Y43.778 E0.04452
G1 X50.35 Y43.721 E0.0546
G1 X51.048 Y43.803 E0.03506
G1 X51.559 Y43.924 E0.0262
G1 X52.272 Y44.288 E0.03994
G1 X52.719 Y44.712 E0.03074
G1 X53.047 Y45.22 E0.03017
G1 X53.264 Y45.786 E0.03024
G1 X53.388 Y46.381 E0.03032
G1 X53.393 Y46.398 E0.00088
G1 X53.646 Y47.234 E0.04358
G1 X53.668 Y47.283 E0.00268
G1 X54.032 Y47.86 E0.03404
G1 X54.053 Y47.887 E0.00171
G1 X54.391 Y48.26 E0.02511
G1 X54.421 Y48.287 E0.00201
G1 X55.04 Y48.742 E0.03833
G1 X55.512 Y49.14 E0.0308
G1 X55.905 Y49.629 E0.0313
G1 X56.236 Y50.432 E0.04333
G1 X56.274 Y51.264 E0.04155
G1 X56.137 Y51.964 E0.03559
G1 X55.777 Y52.819 E0.04628
G1 X55.334 Y53.61 E0.04523
G1 X54.794 Y54.337 E0.04518
G1 X54.375 Y54.71 E0.02799
G1 X53.891 Y54.989 E0.02787
G1 X53.292 Y55.167 E0.03118
G1 X52.431 Y55.166 E0.04296
G1 X51.772 Y54.995 E0.03397
G1 X51.16 Y54.799 E0.03206
G1 X51.137 Y54.793 E0.00119
G1 X50.67 Y54.702 E0.02374
G1 X50.63 Y54.698 E0.00201
G1 X50.142 Y54.703 E0.02435
G1 X50.108 Y54.706 E0.0017
G1 X49.44 Y54.829 E0.03389
G1 X49.398 Y54.842 E0.00219
G1 X48.659 Y55.157 E0.04008
G1 X48.084 Y55.369 E0.03057
G1 X47.478 Y55.459 E0.03057
G1 X46.885 Y55.416 E0.02966
G1 X46.331 Y55.233 E0.02911
G1 X45.854 Y54.952 E0.02762
G1 X45.459 Y54.614 E0.02594
G1 X45.143 Y54.258 E0.02375
G1 X44.648 Y53.56 E0.04269
G1 X44.175 Y52.769 E0.04598
G1 X43.936 Y52.123 E0.03436
G1 X43.829 Y51.601 E0.02658
G1 X43.83 Y51.028 E0.02859
G1 X43.967 Y50.455 E0.02939
G1 X44.247 Y49.896 E0.03119
G1 X44.836 Y49.242 E0.04391
G1 X45.425 Y48.69 E0.04027
G1 X45.438 Y48.676 E0.00095
G1 X45.694 Y48.384 E0.01937
G1 X45.713 Y48.359 E0.00157
G1 X45.904 Y48.056 E0.01787
G1 X45.921 Y48.022 E0.0019
G1 X46.163 Y47.407 E0.03297
G1 X46.176 Y47.358 E0.00253
G1 X46.272 Y46.568 E0.0397
G1 X46.401 Y45.824 E0.03767
G1 X46.627 Y45.248 E0.03087
G1 X46.96 Y44.758 E0.02956
G0 F4320 X47.265 Y45.022
G1 F900 X47.633 Y44.697 E0.02449
G1 X48.049 Y44.458 E0.02394
G1 X48.473 Y44.309 E0.02242
G1 X49.303 Y44.175 E0.04195
G1 X50.336 Y44.122 E0.0516
G1 X50.979 Y44.197 E0.0323
G1 X51.42 Y44.302 E0.02262
G1 X52.039 Y44.618 E0.03467
G1 X52.408 Y44.968 E0.02537
G1 X52.69 Y45.404 E0.02591
G1 X52.88 Y45.9 E0.0265
G1 X52.997 Y46.462 E0.02864
G1 X53.01 Y46.514 E0.00267
G1 X53.263 Y47.35 E0.04358
G1 X53.33 Y47.496 E0.00801
G1 X53.694 Y48.073 E0.03404
G1 X53.756 Y48.156 E0.00517
G1 X54.094 Y48.529 E0.02511
G1 X54.184 Y48.609 E0.00601
G1 X54.786 Y49.052 E0.03729
G1 X55.227 Y49.423 E0.02875
G1 X55.557 Y49.833 E0.02626
G1 X55.84 Y50.522 E0.03716
G1 X55.873 Y51.23 E0.03536
G1 X55.752 Y51.847 E0.03137
G1 X55.415 Y52.647 E0.04331
G1 X54.999 Y53.39 E0.04248
G1 X54.496 Y54.068 E0.04212
G1 X54.14 Y54.384 E0.02375
G1 X53.732 Y54.62 E0.02352
G1 X53.236 Y54.767 E0.02581
G1 X52.482 Y54.766 E0.03762
G1 X51.877 Y54.609 E0.03118
G1 X51.282 Y54.418 E0.03118
G1 X51.214 Y54.4 E0.00351
G1 X50.747 Y54.309 E0.02374
G1 X50.626 Y54.298 E0.00606
G1 X50.138 Y54.303 E0.02435
G1 X50.035 Y54.313 E0.00516
G1 X49.367 Y54.436 E0.03389
G1 X49.241 Y54.474 E0.00657
G1 X48.52 Y54.781 E0.0391
G1 X47.986 Y54.979 E0.02841
G1 X47.462 Y55.057 E0.02643
G1 X46.963 Y55.021 E0.02496
G1 X46.499 Y54.867 E0.02439
G1 X46.086 Y54.624 E0.02391
G1 X45.741 Y54.328 E0.02268
G1 X45.452 Y54.004 E0.02166
G1 X44.983 Y53.342 E0.04048
G1 X44.538 Y52.597 E0.04329
G1 X44.322 Y52.013 E0.03106
G1 X44.229 Y51.56 E0.02307
G1 X44.23 Y51.076 E0.02415
G1 X44.345 Y50.594 E0.02472
G1 X44.582 Y50.121 E0.02639
G1 X45.118 Y49.525 E0.03999
G1 X45.698 Y48.982 E0.03964
G1 X45.739 Y48.94 E0.00293
G1 X45.995 Y48.648 E0.01937
G1 X46.052 Y48.572 E0.00474
G1 X46.243 Y48.269 E0.01787
G1 X46.293 Y48.169 E0.00558
G1 X46.535 Y47.554 E0.03297
G1 X46.573 Y47.406 E0.00762
G1 X46.669 Y46.616 E0.0397
G1 X46.787 Y45.933 E0.03458
G1 X46.983 Y45.437 E0.02661
G1 X47.265 Y45.022 E0.02503
G0 F4320 X47.568 Y45.289
G1 F900 X47.868 Y45.023 E0.02
G1 X48.217 Y44.823 E0.02007
G1 X48.57 Y44.699 E0.01867
G1 X49.342 Y44.575 E0.03901
G1 X50.328 Y44.523 E0.04926
G1 X50.906 Y44.591 E0.02904
G1 X51.278 Y44.679 E0.01907
G1 X51.806 Y44.949 E0.02959
G1 X52.099 Y45.226 E0.02012
G1 X52.33 Y45.584 E0.02126
G1 X52.495 Y46.013 E0.02293
G1 X52.605 Y46.544 E0.02705
G1 X52.627 Y46.63 E0.00443
G1 X52.88 Y47.466 E0.04358
G1 X52.991 Y47.71 E0.01337
G1 X53.355 Y48.287 E0.03404
G1 X53.46 Y48.424 E0.00861
G1 X53.798 Y48.797 E0.02511
G1 X53.947 Y48.932 E0.01003
G1 X54.552 Y49.377 E0.03747
G1 X54.936 Y49.701 E0.02507
G1 X55.209 Y50.04 E0.02172
G1 X55.443 Y50.609 E0.03069
G1 X55.471 Y51.204 E0.02972
G1 X55.368 Y51.727 E0.02659
G1 X55.053 Y52.475 E0.04049
G1 X54.662 Y53.173 E0.03991
G1 X54.201 Y53.794 E0.03859
G1 X53.906 Y54.057 E0.01972
G1 X53.572 Y54.25 E0.01925
G1 X53.177 Y54.367 E0.02055
G1 X52.532 Y54.366 E0.03218
G1 X52 Y54.228 E0.02742
G1 X51.405 Y54.037 E0.03118
G1 X51.29 Y54.007 E0.00593
G1 X50.823 Y53.916 E0.02374
G1 X50.622 Y53.898 E0.01007
G1 X50.134 Y53.903 E0.02435
G1 X49.963 Y53.92 E0.00857
G1 X49.295 Y54.043 E0.03389
G1 X49.084 Y54.106 E0.01099
G1 X48.368 Y54.411 E0.03883
G1 X47.883 Y54.591 E0.02581
G1 X47.45 Y54.655 E0.02184
G1 X47.041 Y54.625 E0.02046
G1 X46.662 Y54.5 E0.01991
G1 X46.322 Y54.3 E0.01968
G1 X46.016 Y54.037 E0.02013
G1 X45.771 Y53.761 E0.01841
G1 X45.313 Y53.115 E0.03951
G1 X44.901 Y52.425 E0.04009
G1 X44.708 Y51.904 E0.02772
G1 X44.629 Y51.52 E0.01956
G1 X44.63 Y51.123 E0.01981
G1 X44.724 Y50.73 E0.02016
G1 X44.914 Y50.35 E0.0212
G1 X45.406 Y49.803 E0.0367
G1 X45.971 Y49.274 E0.03861
G1 X46.04 Y49.203 E0.00494
G1 X46.296 Y48.911 E0.01937
G1 X46.39 Y48.785 E0.00784
G1 X46.581 Y48.482 E0.01787
G1 X46.666 Y48.315 E0.00935
G1 X46.908 Y47.7 E0.03297
G1 X46.97 Y47.455 E0.01261
G1 X47.064 Y46.678 E0.03905
G1 X47.175 Y46.042 E0.03221
G1 X47.338 Y45.626 E0.02229
G1 X47.568 Y45.289 E0.02036
G0 F4320 X47.864 Y45.558
;TYPE:SUPPORT
G1 F900 X48.109 Y45.344 E0.01623
G1 X48.38 Y45.187 E0.01563
G1 X48.666 Y45.087 E0.01512
G1 X49.39 Y44.972 E0.03657
G1 X50.305 Y44.921 E0.04572
G1 X51.052 Y45.012 E0.03754
G1 X51.567 Y45.273 E0.0288
G1 X51.789 Y45.485 E0.01531
G1 X51.972 Y45.768 E0.01681
G1 X52.107 Y46.121 E0.01886
G1 X52.224 Y46.69 E0.02898
G1 X52.544 Y47.747 E0.0551
G1 X53.082 Y48.604 E0.05048
G1 X53.579 Y49.155 E0.03702
G1 X54.572 Y49.886 E0.06152
G1 X54.858 Y50.243 E0.02282
G1 X55.045 Y50.697 E0.0245
G1 X55.067 Y51.172 E0.02372
G1 X54.979 Y51.617 E0.02263
G1 X54.695 Y52.296 E0.03672
G1 X54.331 Y52.946 E0.03717
G1 X53.903 Y53.52 E0.03572
G1 X53.67 Y53.728 E0.01558
G1 X53.408 Y53.878 E0.01506
G1 X53.119 Y53.964 E0.01504
G1 X52.497 Y53.964 E0.03103
G1 X51.454 Y53.629 E0.05465
G1 X50.756 Y53.496 E0.03545
G1 X50.008 Y53.504 E0.03732
G1 X49.061 Y53.677 E0.04803
G1 X47.877 Y54.185 E0.06428
G1 X47.429 Y54.25 E0.02258
G1 X47.116 Y54.226 E0.01566
G1 X46.831 Y54.132 E0.01497
G1 X46.551 Y53.968 E0.01619
G1 X46.074 Y53.498 E0.03341
G1 X45.648 Y52.894 E0.03687
G1 X45.258 Y52.241 E0.03795
G1 X45.093 Y51.792 E0.02387
G1 X45.028 Y51.479 E0.01595
G1 X45.028 Y51.172 E0.01532
G1 X45.102 Y50.862 E0.0159
G1 X45.247 Y50.575 E0.01604
G1 X45.691 Y50.085 E0.03299
G1 X46.29 Y49.522 E0.04101
G1 X46.659 Y49.1 E0.02797
G1 X46.978 Y48.599 E0.02963
G1 X47.339 Y47.69 E0.0488
G1 X47.458 Y46.742 E0.04767
G1 X47.558 Y46.159 E0.02951
G1 X47.699 Y45.806 E0.01896
G1 X47.864 Y45.558 E0.01486
G1 X48.006 Y45.646
G1 X48.006 Y53.957 E0.41464
G1 F1500 E-6.5
G1 F600 Z1.3
G0 F4320 X48.006 Y53.957 Z1.3
G0 X46.157 Y53.34
G1 F600 Z0.3
G1 F1500 E6.5
G1 F900 X50.42 Y53.34 E0.21268
G0 F4320 X50.673 Y53.338
G1 F900 X50.673 Y45.128 E0.4096
G0 F4320 X51.344 Y45.339
G1 F900 X48.495 Y45.339 E0.14214
G1 F1500 E-6.5
G1 F600 Z1.3
G0 F4320 X48.495 Y45.339 Z1.3
G0 X47.386 Y48.006
G1 F600 Z0.3
G1 F1500 E6.5
G1 F900 X52.514 Y48.006 E0.25584
G1 F1500 E-6.5
G1 F600 Z1.3
G0 F4320 X52.514 Y48.006 Z1.3
G0 X53.34 Y49.125
G1 F600 Z0.3
G1 F1500 E6.5
G1 F900 X53.34 Y53.732 E0.22984
G0 F4320 X53.837 Y53.34
G1 F900 X50.786 Y53.34 E0.15222
G1 F1500 E-6.5
G1 F600 Z1.3
G0 F4320 X50.786 Y53.34 Z1.3
G0 X54.863 Y50.673
G1 F600 Z0.3
G1 F1500 E6.5
G1 F900 X45.377 Y50.673 E0.47326
G1 X45.339 Y50.747
G1 X45.339 Y51.962 E0.06062
G1 F1500 E-6.5
G1 F600 Z1.3
G0 F4320 X45.339 Y51.962 Z1.3
G0 X45.339 Y54.478
;TIME_ELAPSED:18.957220
;LAYER:1
;note -- min layer time used
M106 S255
G0 F5760 X45.339 Y54.478 Z1.55
;TYPE:SUPPORT
G1 F600 Z0.55
G1 F1500 E6.5
G1 F1189 X45.339 Y48.77 E0.23731
G1 X44.836 Y49.242 E0.02868
G1 X44.247 Y49.896 E0.03659
G1 X43.967 Y50.455 E0.02599
G1 X43.83 Y51.028 E0.02449
G1 X43.829 Y51.601 E0.02382
G1 X43.936 Y52.123 E0.02215
G1 X44.175 Y52.769 E0.02864
G1 X44.648 Y53.56 E0.03832
G1 X45.143 Y54.258 E0.03558
G1 X45.459 Y54.614 E0.01979
G1 X45.854 Y54.952 E0.02161
G1 X46.331 Y55.233 E0.02302
G1 X46.885 Y55.416 E0.02426
G1 X47.478 Y55.459 E0.02472
G1 X48.006 Y55.381 E0.02219
G1 X48.006 Y44.05 E0.47109
G1 X48.376 Y43.92 E0.0163
G1 X49.257 Y43.778 E0.0371
G1 X50.35 Y43.721 E0.0455
G1 X50.673 Y43.759 E0.01352
G1 X50.673 Y54.699 E0.45483
G1 X50.903 Y54.716 E0.00959
G1 X51.772 Y54.995 E0.03795
G1 X52.431 Y55.166 E0.02831
G1 X53.34 Y55.167 E0.03779
G1 X53.34 Y46.273 E0.36977
G1 X53.652 Y47.254 E0.0428
G1 X53.819 Y47.571 E0.0149
G1 X54.163 Y48.038 E0.02411
G1 X54.409 Y48.279 E0.01432
G1 X55.04 Y48.742 E0.03254
G1 X55.512 Y49.14 E0.02567
G1 X55.905 Y49.629 E0.02608
G1 X56.007 Y49.877 E0.01115
G1 X56.007 Y52.273 E0.09961
G1 F1500 E-6.5
G1 F600 Z1.55
G0 F5760 X56.007 Y52.273 Z1.55
G0 X45.339 Y54.478
;TIME_ELAPSED:22.826234
;LAYER:2
;note -- min layer time used
G0 F7200 X45.339 Y54.478 Z1.8
;TYPE:SUPPORT
G1 F600 Z0.8
G1 F1500 E6.5
G1 F1219.1 X45.339 Y48.812 E0.23556
G1 X44.847 Y49.232 E0.02689
G1 X44.248 Y49.894 E0.03712
G1 X43.967 Y50.455 E0.02609
G1 X43.83 Y51.028 E0.02449
G1 X43.829 Y51.601 E0.02382
G1 X43.936 Y52.123 E0.02215
G1 X44.175 Y52.769 E0.02864
G1 X44.648 Y53.56 E0.03832
G1 X45.143 Y54.258 E0.03558
G1 X45.459 Y54.614 E0.01979
G1 X45.854 Y54.952 E0.02161
G1 X46.331 Y55.233 E0.02302
G1 X46.885 Y55.416 E0.02426
G1 X47.478 Y55.459 E0.02472
G1 X48.006 Y55.381 E0.02219
G1 X48.006 Y44.05 E0.47109
G1 X48.376 Y43.92 E0.0163
G1 X49.257 Y43.778 E0.0371
G1 X50.35 Y43.721 E0.0455
G1 X50.673 Y43.759 E0.01352
G1 X50.673 Y54.703 E0.455
G1 X50.902 Y54.716 E0.00954
G1 X51.781 Y54.997 E0.03837
G1 X52.431 Y55.166 E0.02792
G1 X53.34 Y55.167 E0.03779
G1 X53.34 Y46.151 E0.37484
G1 X53.437 Y46.615 E0.01971
G1 X53.695 Y47.364 E0.03294
G1 X53.962 Y47.811 E0.02165
G1 X54.325 Y48.219 E0.0227
G1 X55.04 Y48.742 E0.03683
G1 X55.512 Y49.14 E0.02567
G1 X55.905 Y49.629 E0.02608
G1 X56.007 Y49.877 E0.01115
G1 X56.007 Y52.273 E0.09961
G1 F1500 E-6.5
G1 F600 Z1.8
G0 F7200 X56.007 Y52.273 Z1.8
G0 X45.339 Y54.478
;TIME_ELAPSED:26.614748
;LAYER:3
;note -- min layer time used
G0 X45.339 Y54.478 Z2.05
;TYPE:SUPPORT
G1 F600 Z1.05
G1 F1500 E6.5
G1 F1213.6 X45.339 Y48.812 E0.23556
G1 X44.847 Y49.232 E0.02689
G1 X44.248 Y49.894 E0.03712
G1 X43.967 Y50.455 E0.02609
G1 X43.83 Y51.028 E0.02449
G1 X43.829 Y51.601 E0.02382
G1 X43.936 Y52.123 E0.02215
G1 X44.175 Y52.769 E0.02864
G1 X44.648 Y53.56 E0.03832
G1 X45.143 Y54.258 E0.03558
G1 X45.459 Y54.614 E0.01979
G1 X45.854 Y54.952 E0.02161
G1 X46.331 Y55.233 E0.02302
G1 X46.885 Y55.416 E0.02426
G1 X47.478 Y55.459 E0.02472
G1 X48.006 Y55.381 E0.02219
G1 X48.006 Y44.05 E0.47109
G1 X48.376 Y43.92 E0.0163
G1 X49.257 Y43.778 E0.0371
G1 X50.35 Y43.721 E0.0455
G1 X50.673 Y43.759 E0.01352
G1 X50.673 Y54.69 E0.45446
G1 X50.907 Y54.718 E0.0098
G1 X51.814 Y55.005 E0.03955
G1 X52.431 Y55.166 E0.02651
G1 X53.34 Y55.167 E0.03779
G1 X53.34 Y46.283 E0.36935
G1 X53.576 Y47.096 E0.0352
G1 X53.783 Y47.557 E0.02101
G1 X54.079 Y47.973 E0.02123
G1 X54.33 Y48.222 E0.0147
G1 X55.049 Y48.75 E0.03709
G1 X55.512 Y49.14 E0.02517
G1 X55.905 Y49.629 E0.02608
G1 X56.007 Y49.877 E0.01115
G1 X56.007 Y52.273 E0.09961
G1 F1500 E-6.5
G1 F600 Z2.05
G0 F7200 X56.007 Y52.273 Z2.05
G0 X45.339 Y54.478
;TIME_ELAPSED:30.403091
;LAYER:4
;note -- min layer time used
G0 X45.339 Y54.478 Z2.3
;TYPE:SUPPORT
G1 F600 Z1.3
G1 F1500 E6.5
G1 F1216.9 X45.339 Y48.842 E0.23432
G1 X44.844 Y49.234 E0.02625
G1 X44.248 Y49.894 E0.03697
G1 X43.967 Y50.455 E0.02609
G1 X43.83 Y51.028 E0.02449
G1 X43.829 Y51.601 E0.02382
G1 X43.936 Y52.123 E0.02215
G1 X44.175 Y52.769 E0.02864
G1 X44.648 Y53.56 E0.03832
G1 X45.143 Y54.258 E0.03558
G1 X45.459 Y54.614 E0.01979
G1 X45.854 Y54.952 E0.02161
G1 X46.331 Y55.233 E0.02302
G1 X46.885 Y55.416 E0.02426
G1 X47.478 Y55.459 E0.02472
G1 X48.006 Y55.381 E0.02219
G1 X48.006 Y44.05 E0.47109
G1 X48.376 Y43.92 E0.0163
G1 X49.257 Y43.778 E0.0371
G1 X50.35 Y43.721 E0.0455
G1 X50.673 Y43.759 E0.01352
G1 X50.673 Y54.668 E0.45354
G1 X51.254 Y54.797 E0.02474
G1 X51.809 Y55.004 E0.02463
G1 X52.431 Y55.166 E0.02672
G1 X53.34 Y55.167 E0.03779
G1 X53.34 Y46.172 E0.37397
G1 X53.43 Y46.63 E0.01941
G1 X53.652 Y47.338 E0.03085
G1 X53.942 Y47.82 E0.02339
G1 X54.267 Y48.177 E0.02007
G1 X55.049 Y48.75 E0.04031
G1 X55.512 Y49.14 E0.02517
G1 X55.905 Y49.629 E0.02608
G1 X56.007 Y49.877 E0.01115
G1 X56.007 Y52.273 E0.09961
G1 F1500 E-6.5
G1 F600 Z2.3
G0 F7200 X56.007 Y52.273 Z2.3
G0 X45.339 Y54.478
;TIME_ELAPSED:34.191373
;LAYER:5
;note -- min layer time used
G0 X45.339 Y54.478 Z2.55
;TYPE:SUPPORT
G1 F600 Z1.55
G1 F1500 E6.5
G1 F1217.4 X45.339 Y48.841 E0.23436
G1 X44.843 Y49.235 E0.02634
G1 X44.248 Y49.894 E0.03691
G1 X43.967 Y50.455 E0.02609
G1 X43.83 Y51.028 E0.02449
G1 X43.829 Y51.601 E0.02382
G1 X43.936 Y52.123 E0.02215
G1 X44.175 Y52.769 E0.02864
G1 X44.648 Y53.56 E0.03832
G1 X45.143 Y54.258 E0.03558
G1 X45.459 Y54.614 E0.01979
G1 X45.854 Y54.952 E0.02161
G1 X46.331 Y55.233 E0.02302
G1 X46.885 Y55.416 E0.02426
G1 X47.478 Y55.459 E0.02472
G1 X48.006 Y55.381 E0.02219
G1 X48.006 Y44.05 E0.47109
G1 X48.376 Y43.92 E0.0163
G1 X49.257 Y43.778 E0.0371
G1 X50.35 Y43.721 E0.0455
G1 X50.673 Y43.759 E0.01352
G1 X50.673 Y54.666 E0.45346
G1 X51.023 Y54.711 E0.01467
G1 X51.809 Y55.004 E0.03487
G1 X52.431 Y55.166 E0.02672
G1 X53.34 Y55.167 E0.03779
G1 X53.34 Y46.168 E0.37413
G1 X53.45 Y46.723 E0.02352
G1 X53.585 Y47.182 E0.01989
G1 X53.754 Y47.561 E0.01725
G1 X54.09 Y48.021 E0.02368
G1 X54.523 Y48.402 E0.02398
G1 X55.06 Y48.76 E0.02683
G1 X55.512 Y49.14 E0.02455
G1 X55.905 Y49.629 E0.02608
G1 X56.007 Y49.877 E0.01115
G1 X56.007 Y52.273 E0.09961
G1 F1500 E-6.5
G1 F600 Z2.55
G0 F7200 X56.007 Y52.273 Z2.55
G0 X45.339 Y54.478
;TIME_ELAPSED:37.979761
;LAYER:6
;note -- min layer time used
G0 X45.339 Y54.478 Z2.8
;TYPE:SUPPORT
G1 F600 Z1.8
G1 F1500 E6.5
G1 F1217.1 X45.339 Y48.84 E0.2344
G1 X44.843 Y49.235 E0.02636
G1 X44.248 Y49.894 E0.03691
G1 X43.967 Y50.455 E0.02609
G1 X43.83 Y51.028 E0.02449
G1 X43.829 Y51.601 E0.02382
G1 X43.936 Y52.123 E0.02215
G1 X44.175 Y52.769 E0.02864
G1 X44.648 Y53.56 E0.03832
G1 X45.143 Y54.258 E0.03558
G1 X45.459 Y54.614 E0.01979
G1 X45.854 Y54.952 E0.02161
G1 X46.331 Y55.233 E0.02302
G1 X46.885 Y55.416 E0.02426
G1 X47.478 Y55.459 E0.02472
G1 X48.006 Y55.381 E0.02219
G1 X48.006 Y44.05 E0.47109
G1 X48.376 Y43.92 E0.0163
G1 X49.257 Y43.778 E0.0371
G1 X50.35 Y43.721 E0.0455
G1 X50.673 Y43.759 E0.01352
G1 X50.673 Y54.642 E0.45246
G1 X51.03 Y54.713 E0.01513
G1 X51.809 Y55.004 E0.03457
G1 X52.431 Y55.166 E0.02672
G1 X53.34 Y55.167 E0.03779
G1 X53.34 Y46.17 E0.37405
G1 X53.475 Y46.855 E0.02903
G1 X53.647 Y47.376 E0.02281
G1 X53.872 Y47.77 E0.01886
G1 X54.287 Y48.247 E0.02629
G1 X55.057 Y48.757 E0.0384
G1 X55.512 Y49.14 E0.02473
G1 X55.905 Y49.629 E0.02608
G1 X56.007 Y49.877 E0.01115
G1 X56.007 Y52.273 E0.09961
G1 F1500 E-6.5
G1 F600 Z2.8
G0 F7200 X56.007 Y52.273 Z2.8
G0 X45.339 Y54.478
;TIME_ELAPSED:41.768071
;LAYER:7
;note -- min layer time used
